SVG_Azure_All/Logic App Custom Connecton.svg

<?xml version="1.0" encoding="UTF-8" standalone="no"?>
<!-- Generated by Microsoft Visio, SVG Export Logic App Custom Connecton.svg Page-1 -->

<svg
   xmlns:dc="http://purl.org/dc/elements/1.1/"
   xmlns:cc="http://creativecommons.org/ns#"
   xmlns:rdf="http://www.w3.org/1999/02/22-rdf-syntax-ns#"
   xmlns:svg="http://www.w3.org/2000/svg"
   xmlns="http://www.w3.org/2000/svg"
   xmlns:xlink="http://www.w3.org/1999/xlink"
   xmlns:sodipodi="http://sodipodi.sourceforge.net/DTD/sodipodi-0.dtd"
   xmlns:inkscape="http://www.inkscape.org/namespaces/inkscape"
   width="0.7873202in"
   height="0.78739107in"
   viewBox="0 0 56.686968 56.692071"
   xml:space="preserve"
   class="st4"
   version="1.1"
   id="svg42"
   sodipodi:docname="Logic App Custom Connecton.svg"
   style="font-size:12px;overflow:visible;color-interpolation-filters:sRGB;fill:none;fill-rule:evenodd;stroke-linecap:square;stroke-miterlimit:3"
   inkscape:version="0.92.5 (2060ec1f9f, 2020-04-08)"><metadata
   id="metadata46"><rdf:RDF><cc:Work
       rdf:about=""><dc:format>image/svg+xml</dc:format><dc:type
         rdf:resource="http://purl.org/dc/dcmitype/StillImage" /></cc:Work></rdf:RDF></metadata><sodipodi:namedview
   pagecolor="#ffffff"
   bordercolor="#666666"
   borderopacity="1"
   objecttolerance="10"
   gridtolerance="10"
   guidetolerance="10"
   inkscape:pageopacity="0"
   inkscape:pageshadow="2"
   inkscape:window-width="640"
   inkscape:window-height="480"
   id="namedview44"
   showgrid="false"
   inkscape:zoom="1.3534469"
   inkscape:cx="37.792401"
   inkscape:cy="37.789885"
   inkscape:window-x="0"
   inkscape:window-y="0"
   inkscape:window-maximized="0"
   inkscape:current-layer="svg42" />
	<style
   type="text/css"
   id="style2">
	<![CDATA[
		.st1 {fill:#949494;stroke:none;stroke-linecap:butt;stroke-width:37.042}
		.st2 {fill:url(#grad0-7);stroke:none;stroke-linecap:butt;stroke-width:37.042}
		.st3 {fill:url(#grad0-11);stroke:none;stroke-linecap:butt;stroke-width:37.042}
		.st4 {fill:none;fill-rule:evenodd;font-size:12px;overflow:visible;stroke-linecap:square;stroke-miterlimit:3}
	]]>
	</style>

	<defs
   id="Patterns_And_Gradients">
		<linearGradient
   id="grad0-7"
   x1="0.0022403645"
   y1="104.65649"
   x2="26.217861"
   y2="104.65649"
   gradientTransform="scale(1.0007589,0.99924167)"
   gradientUnits="userSpaceOnUse">
			<stop
   offset="0"
   stop-color="#008bf1"
   stop-opacity="1"
   id="stop4" />
			<stop
   offset="1"
   stop-color="#004dae"
   stop-opacity="1"
   id="stop6" />
		</linearGradient>
		<linearGradient
   id="grad0-11"
   x1="0"
   y1="0"
   x2="1"
   y2="0"
   gradientTransform="rotate(90,0.5,0.5)">
			<stop
   offset="0"
   stop-color="#76bc2d"
   stop-opacity="1"
   id="stop9" />
			<stop
   offset="1"
   stop-color="#5e9624"
   stop-opacity="1"
   id="stop11" />
		</linearGradient>
	<linearGradient
   inkscape:collect="always"
   xlink:href="#grad0-11"
   id="linearGradient4556"
   gradientTransform="scale(0.99973671,1.0002634)"
   x1="-1.0318667e-05"
   y1="111.89053"
   x2="18.855024"
   y2="111.89053"
   gradientUnits="userSpaceOnUse" /><linearGradient
   inkscape:collect="always"
   xlink:href="#grad0-11"
   id="linearGradient4558"
   gradientTransform="scale(1.0007973,0.99920338)"
   x1="-1.0307732e-05"
   y1="112.04926"
   x2="18.834994"
   y2="112.04926"
   gradientUnits="userSpaceOnUse" /></defs>
	<g
   id="g40"
   transform="translate(-37.044242,-37.0388)">
		<title
   id="title15">Page-1</title>
		<g
   id="group3345-1"
   transform="translate(37.042,-37.042)">
			<title
   id="title17">Logic App Custom Connecton</title>
			<g
   id="shape3346-2"
   transform="translate(11.5079,-11.4725)">
				<title
   id="title19">polygon21</title>
				<path
   d="m 29.56,130.78 v -3.72 H 3.72 V 104.41 H 0 v 22.65 2.09 1.63 z"
   class="st1"
   id="path21"
   inkscape:connector-curvature="0"
   style="fill:#949494;stroke:none;stroke-width:37.04199982;stroke-linecap:butt" />
			</g>
			<g
   id="shape3347-4">
				<title
   id="title24">bcfff480-0908-4673-8dd3-211accb</title>
				<path
   d="M 11.76,105.13 0.56,116.4 a 1.94916,1.94916 -180 0 0 0,2.73 l 11.2,11.09 a 1.94916,1.94916 -180 0 0 2.72,0 l 11.2,-11.2 a 1.94916,1.94916 -180 0 0 0,-2.73 l -11.2,-11.16 a 1.94916,1.94916 -180 0 0 -2.72,0 z"
   class="st2"
   id="path26"
   inkscape:connector-curvature="0"
   style="fill:url(#grad0-7);stroke:none;stroke-width:37.04199982;stroke-linecap:butt" />
			</g>
			<g
   id="shape3348-8"
   transform="translate(3.92391,-37.8392)">
				<title
   id="title29">a2e9ce98-ac6d-463e-9773-5eed323</title>
				<path
   d="m 18.85,128.86 v -15.02 a 1.91372,1.91372 -180 0 0 -1.73,-1.92 H 1.91 A 1.91372,1.91372 -180 0 0 0,113.84 v 15.02 a 1.91372,1.91372 -180 0 0 1.91,1.92 h 15.21 a 1.91372,1.91372 -180 0 0 1.73,-1.92 z"
   class="st3"
   id="path31"
   inkscape:connector-curvature="0"
   style="fill:url(#linearGradient4556);stroke:none;stroke-width:37.04199982;stroke-linecap:butt" />
			</g>
			<g
   id="shape3349-12"
   transform="translate(37.8392,-3.92391)">
				<title
   id="title34">abb7af69-4e26-4379-92b2-a9fedde</title>
				<path
   d="m 0,113.87 v 14.99 a 1.91372,1.91372 -180 0 0 1.91,1.92 h 15.03 a 1.91372,1.91372 -180 0 0 1.91,-1.92 v -14.99 a 1.91372,1.91372 -180 0 0 -1.91,-1.91 H 1.91 A 1.91372,1.91372 -180 0 0 0,113.87 Z"
   class="st3"
   id="path36"
   inkscape:connector-curvature="0"
   style="fill:url(#linearGradient4558);stroke:none;stroke-width:37.04199982;stroke-linecap:butt" />
			</g>
		</g>
	</g>
</svg>

<?xml version="1.0" encoding="UTF-8" standalone="no"?>
<!DOCTYPE svg PUBLIC "-//W3C//DTD SVG 1.1//EN" "http://www.w3.org/Graphics/SVG/1.1/DTD/svg11.dtd">
<!-- Generated by Microsoft Visio, SVG Export Logic App Custom Connecton.svg Page-1 -->
<svg xmlns="http://www.w3.org/2000/svg" xmlns:xlink="http://www.w3.org/1999/xlink" xmlns:ev="http://www.w3.org/2001/xml-events"
		width="1.81635in" height="1.81635in" viewBox="0 0 130.777 130.777" xml:space="preserve" color-interpolation-filters="sRGB"
		class="st4">
	<style type="text/css">
	<![CDATA[
		.st1 {fill:#949494;stroke:none;stroke-linecap:butt;stroke-width:37.042}
		.st2 {fill:url(#grad0-7);stroke:none;stroke-linecap:butt;stroke-width:37.042}
		.st3 {fill:url(#grad0-11);stroke:none;stroke-linecap:butt;stroke-width:37.042}
		.st4 {fill:none;fill-rule:evenodd;font-size:12px;overflow:visible;stroke-linecap:square;stroke-miterlimit:3}
	]]>
	</style>

	<defs id="Patterns_And_Gradients">
		<linearGradient id="grad0-7" x1="0" y1="0" x2="1" y2="0" gradientTransform="rotate(90 0.5 0.5)">
			<stop offset="0" stop-color="#008bf1" stop-opacity="1"/>
			<stop offset="1" stop-color="#004dae" stop-opacity="1"/>
		</linearGradient>
		<linearGradient id="grad0-11" x1="0" y1="0" x2="1" y2="0" gradientTransform="rotate(90 0.5 0.5)">
			<stop offset="0" stop-color="#76bc2d" stop-opacity="1"/>
			<stop offset="1" stop-color="#5e9624" stop-opacity="1"/>
		</linearGradient>
	</defs>
	<g>
		<title>Page-1</title>
		<g id="group3293-1" transform="translate(37.042,-37.042)">
			<title>Logic App Custom Connecton</title>
			<g id="shape3294-2" transform="translate(11.5079,-11.4725)">
				<title>polygon21</title>
				<path d="M29.56 130.78 L29.56 127.06 L3.72 127.06 L3.72 104.41 L0 104.41 L0 127.06 L0 129.15 L0 130.78 L29.56 130.78
							 Z" class="st1"/>
			</g>
			<g id="shape3295-4">
				<title>bcfff480-0908-4673-8dd3-211accb</title>
				<path d="M11.76 105.13 L0.56 116.4 A1.94916 1.94916 -180 0 0 0.56 119.13 L11.76 130.22 A1.94916 1.94916 -180 0 0
							 14.48 130.22 L25.68 119.02 A1.94916 1.94916 -180 0 0 25.68 116.29 L14.48 105.13 A1.94916 1.94916 -180
							 0 0 11.76 105.13 Z" class="st2"/>
			</g>
			<g id="shape3296-8" transform="translate(3.92391,-37.8392)">
				<title>a2e9ce98-ac6d-463e-9773-5eed323</title>
				<path d="M18.85 128.86 L18.85 113.84 A1.91372 1.91372 -180 0 0 17.12 111.92 L1.91 111.92 A1.91372 1.91372 -180 0
							 0 -0 113.84 L0 128.86 A1.91372 1.91372 -180 0 0 1.91 130.78 L17.12 130.78 A1.91372 1.91372 -180 0 0
							 18.85 128.86 Z" class="st3"/>
			</g>
			<g id="shape3297-12" transform="translate(37.8392,-3.92391)">
				<title>abb7af69-4e26-4379-92b2-a9fedde</title>
				<path d="M0 113.87 L0 128.86 A1.91372 1.91372 -180 0 0 1.91 130.78 L16.94 130.78 A1.91372 1.91372 -180 0 0 18.85
							 128.86 L18.85 113.87 A1.91372 1.91372 -180 0 0 16.94 111.96 L1.91 111.96 A1.91372 1.91372 -180 0 0 0
							 113.87 Z" class="st3"/>
			</g>
		</g>
	</g>
</svg>
